X:570
T: ICH HABE MEIN FEINSLIEBCHEN
N: E0536A
O: Europa, Mitteleuropa, Deutschland, Schlesien
R: Liebes - Lied
M: 3/4
L: 1/8
K: F
F | ccA2F2 | cBG2z
G | BBG2d2 | cAF2z
C | FFA2c2 | f4
d2 | cAcBG2 | F4z

@@@ Tune index: 4220
